assets/icons/printer/warning-filled.svg

<?xml version="1.0" encoding="UTF-8" standalone="no"?>
<svg
   viewBox="0 0 24 24"
   height="24"
   width="24"
   version="1.1"
   id="svg6"
   sodipodi:docname="warning-filled.svg"
   inkscape:version="1.2 (1:1.2.1+202207142221+cd75a1ee6d)"
   xmlns:inkscape="http://www.inkscape.org/namespaces/inkscape"
   xmlns:sodipodi="http://sodipodi.sourceforge.net/DTD/sodipodi-0.dtd"
   xmlns="http://www.w3.org/2000/svg"
   xmlns:svg="http://www.w3.org/2000/svg">
  <defs
     id="defs10" />
  <sodipodi:namedview
     id="namedview8"
     pagecolor="#ffffff"
     bordercolor="#666666"
     borderopacity="1.0"
     inkscape:pageshadow="2"
     inkscape:pageopacity="0.0"
     inkscape:pagecheckerboard="0"
     showgrid="true"
     inkscape:zoom="28"
     inkscape:cx="13.821429"
     inkscape:cy="11.178571"
     inkscape:window-width="1920"
     inkscape:window-height="1043"
     inkscape:window-x="0"
     inkscape:window-y="0"
     inkscape:window-maximized="1"
     inkscape:current-layer="svg6"
     inkscape:showpageshadow="2"
     inkscape:deskcolor="#d1d1d1">
    <inkscape:grid
       type="xygrid"
       id="grid913" />
    <inkscape:grid
       type="xygrid"
       id="grid957"
       dotted="true"
       spacingx="0.5"
       spacingy="0.5"
       empspacing="10" />
  </sodipodi:namedview>
  <path
     id="path1329"
     style="color:#000000;fill:#808080;stroke-width:1px;stroke-linejoin:round;-inkscape-stroke:none;fill-opacity:1"
     d="M 17.5 14 A 0.50005 0.50005 0 0 0 17.066406 14.251953 L 13.066406 21.251953 A 0.50005 0.50005 0 0 0 13.5 22 L 21.5 22 A 0.50005 0.50005 0 0 0 21.933594 21.251953 L 17.933594 14.251953 A 0.50005 0.50005 0 0 0 17.5 14 z M 17 16 L 18 16 L 18 18 L 17.800781 19 L 17.199219 19 L 17 18 L 17 16 z M 17.5 20 A 0.5 0.5 0 0 1 18 20.5 A 0.5 0.5 0 0 1 17.5 21 A 0.5 0.5 0 0 1 17 20.5 A 0.5 0.5 0 0 1 17.5 20 z " />
  <path
     id="rect867"
     style="fill:#808080;fill-opacity:1;fill-rule:evenodd;stroke-width:0.5;stroke-linecap:round;stroke-linejoin:round"
     d="m 6,2 v 4 h 12 v -4 z m 0,5 v 0.00781 c -1.0668611,0.02974 -1.9795946,0.1711411 -2.7050781,0.6328125 -0.836375,0.5322387 -1.2949219,1.509386 -1.2949219,2.859375 v 4 c 0,1.349992 0.4585469,2.32714 1.2949219,2.859375 0.4867331,0.309741 1.0597816,0.472224 1.7050781,0.556641 v -3.916016 h 11.058594 l 0.138672,-0.244141 c 0.265961,-0.465427 0.764721,-0.755248 1.300781,-0.755859 0.0013,-3e-6 0.0026,-3e-6 0.0039,0 0.53606,6.11e-4 1.03482,0.290432 1.300781,0.755859 l 0.138672,0.244141 h 0.05859 v 0.101562 l 1.814453,3.175782 c 0.763974,-0.546762 1.185547,-1.489984 1.185547,-2.777344 v -4 c 0,-1.349989 -0.458548,-2.3271363 -1.294922,-2.859375 -0.725481,-0.4616714 -1.638216,-0.6030727 -2.705078,-0.6328125 v -0.00781 z m 12,3 c 0.552284,0 1,0.447716 1,1 0,0.552284 -0.447716,1 -1,1 -0.552284,0 -1,-0.447716 -1,-1 0,-0.552284 0.447716,-1 1,-1 z m -12,5 v 2.992188 2.007812 2 h 6.119141 c -0.150574,-0.394663 -0.148656,-0.847069 0.07813,-1.244141 l 0.43164,-0.755859 h -4.628906 v -1 h 5.201172 l 0.570312,-1 h -5.771484 v -1 h 6.34375 l 1.142578,-2 z"
     sodipodi:nodetypes="cccccccssssccccsccccccssscccssssscccccccccccccccc" />
</svg>

<svg height="24" width="24" xmlns="http://www.w3.org/2000/svg"><path style="color:#000;fill:gray;stroke-width:1px;stroke-linejoin:round;-inkscape-stroke:none;fill-opacity:1" d="M17.5 14a.5.5 0 0 0-.434.252l-4 7A.5.5 0 0 0 13.5 22h8a.5.5 0 0 0 .434-.748l-4-7A.5.5 0 0 0 17.5 14zm-.5 2h1v2l-.2 1h-.6l-.2-1v-2zm.5 4a.5.5 0 0 1 .5.5.5.5 0 0 1-.5.5.5.5 0 0 1-.5-.5.5.5 0 0 1 .5-.5z"/><path style="fill:gray;fill-opacity:1;stroke-width:.5;stroke-linecap:round;stroke-linejoin:round" d="M6 2v4h12V2zm0 5v.008c-1.067.03-1.98.171-2.705.633C2.459 8.173 2 9.15 2 10.5v4c0 1.35.459 2.327 1.295 2.86.487.31 1.06.472 1.705.556V14h11.059l.138-.244A1.504 1.504 0 0 1 17.502 13a1.5 1.5 0 0 1 1.3.756l.14.244H19v.102l1.814 3.175C21.578 16.731 22 15.787 22 14.5v-4c0-1.35-.459-2.327-1.295-2.86-.725-.461-1.638-.602-2.705-.632V7zm12 3a1 1 0 1 1 0 2 1 1 0 0 1 0-2zM6 15v7h6.12a1.446 1.446 0 0 1 .077-1.244L12.63 20H8v-1h5.201l.57-1H8v-1h6.344l1.142-2z"/></svg>
